archdroid-icon-theme/Archdroid-Teal/apps/scalable/xfce4-timer.svg

<svg xmlns="http://www.w3.org/2000/svg" fill="#009688" viewBox="0 0 48 48"><path d="m44 11.58l-9.19-7.71-2.57 3.06 9.19 7.71 2.57-3.06m-28.24-4.66l-2.57-3.06-9.19 7.71 2.57 3.06 9.19-7.71m9.24 9.22h-3v12l9.49 5.71 1.51-2.47-8-4.74v-10.5zm-1.01-8c-9.95 0-17.99 8.06-17.99 18 0 9.94 8.04 18 17.99 18 9.95 0 18.01-8.06 18.01-18 0-9.94-8.06-18-18.01-18m.01 32c-7.73 0-14-6.27-14-14 0-7.73 6.27-14 14-14 7.73 0 14 6.27 14 14 0 7.73-6.26 14-14 14"/></svg>

<?xml version="1.0" encoding="UTF-8" standalone="no"?>
<svg
   xmlns:dc="http://purl.org/dc/elements/1.1/"
   xmlns:cc="http://creativecommons.org/ns#"
   xmlns:rdf="http://www.w3.org/1999/02/22-rdf-syntax-ns#"
   xmlns:svg="http://www.w3.org/2000/svg"
   xmlns="http://www.w3.org/2000/svg"
   xmlns:sodipodi="http://sodipodi.sourceforge.net/DTD/sodipodi-0.dtd"
   xmlns:inkscape="http://www.inkscape.org/namespaces/inkscape"
   fill="#009688"
   width="48"
   height="48"
   viewBox="0 0 48 48"
   id="svg2"
   version="1.1"
   inkscape:version="0.91 r13725"
   sodipodi:docname="xfce4-timer.svg">
  <metadata
     id="metadata10">
    <rdf:RDF>
      <cc:Work
         rdf:about="">
        <dc:format>image/svg+xml</dc:format>
        <dc:type
           rdf:resource="http://purl.org/dc/dcmitype/StillImage" />
      </cc:Work>
    </rdf:RDF>
  </metadata>
  <defs
     id="defs8" />
  <sodipodi:namedview
     pagecolor="#ffffff"
     bordercolor="#666666"
     borderopacity="1"
     objecttolerance="10"
     gridtolerance="10"
     guidetolerance="10"
     inkscape:pageopacity="0"
     inkscape:pageshadow="2"
     inkscape:window-width="640"
     inkscape:window-height="480"
     id="namedview6"
     showgrid="false"
     inkscape:zoom="6.549153645833334"
     inkscape:cx="23.99999999999999"
     inkscape:cy="24"
     inkscape:window-x="0"
     inkscape:window-y="30"
     inkscape:window-maximized="0"
     inkscape:current-layer="svg2" />
  <path
     d="M 44,11.58 34.81,3.87 32.24,6.93 41.43,14.64 44,11.58 Z m -28.24,-4.66 -2.57,-3.06 L 4,11.57 6.570000000000001,14.63 15.76,6.920000000000001 Z M 25,16.14 l -3,0 0,12 9.49,5.71 1.51,-2.47 -8,-4.74 0,-10.5 z m -1.01,-8 C 14.04,8.14 6,16.2 6,26.14 6,36.08 14.04,44.14 23.99,44.14 c 9.95,0 18.01,-8.06 18.01,-18 0,-9.94 -8.06,-18 -18.01,-18 z m 0.01,32 c -7.73,0 -14,-6.26999999999999 -14,-14 0,-7.73 6.27,-14 14,-14 7.73,0 14,6.27 14,14 0,7.73000000000001 -6.26,14 -14,14 z"
     id="path4"
     inkscape:connector-curvature="0" />
</svg>
